dist/img/features_high_anonymity.svg

<svg width="180" height="87" viewBox="0 0 180 87" fill="none" xmlns="http://www.w3.org/2000/svg">
<mask id="mask0" mask-type="alpha" maskUnits="userSpaceOnUse" x="0" y="0" width="180" height="87">
<path d="M176.505 86.7615H3.49515C1.61314 86.7615 0 85.4512 0 83.6645V3.85843C0 2.07172 1.47872 0.761475 3.49515 0.761475H176.505C178.387 0.761475 180 2.07172 180 3.85843V83.7836C179.866 85.4512 178.387 86.7615 176.505 86.7615Z" fill="#E4F5FB"/>
</mask>
<g mask="url(#mask0)">
<path d="M109.129 42.2349C109.129 42.2349 119.612 42.9401 118.91 45.0559C118.207 47.1423 112.057 54.1655 112.057 54.1655L102.13 55.0177L109.129 42.2349Z" fill="#630DD3"/>
<path d="M103.77 43.4397C103.77 43.4397 116.801 43.4985 118.353 45.7318C118.353 45.7318 108.426 56.3989 108.016 56.5164C107.606 56.6633 95.3066 57.9269 95.3066 57.9269L103.77 43.4397Z" fill="#191551"/>
<path d="M68.8925 42.2349C68.8925 42.2349 58.4089 42.9401 59.1117 45.0559C59.8145 47.1423 65.9642 54.1655 65.9642 54.1655L75.8914 55.0177L68.8925 42.2349Z" fill="#630DD3"/>
<path d="M74.2516 43.4397C74.2516 43.4397 61.2203 43.4985 59.6682 45.7318C59.6682 45.7318 69.5955 56.3989 70.0055 56.5164C70.4154 56.6633 82.7147 57.9269 82.7147 57.9269L74.2516 43.4397Z" fill="#191551"/>
<path d="M89.0104 42.4994C89.0104 42.4994 67.6917 31.8911 67.6917 36.9455C67.6917 42.4994 69.273 49.8459 76.7697 54.2538C80.0202 56.1639 89.0104 66.2726 89.0104 66.2726C89.0104 66.2726 98.0006 56.1345 101.251 54.2538C108.777 49.8753 110.329 42.5288 110.329 36.9455C110.329 31.8617 89.0104 42.4994 89.0104 42.4994Z" fill="#F0F0F0"/>
<path d="M89.0106 38.885H67.6333C68.8047 44.3802 75.5985 51.0508 80.6354 51.0508C86.4922 51.0508 86.785 46.2609 89.0106 46.2609C91.2362 46.2609 91.529 51.0508 97.3858 51.0508C102.423 51.0508 108.982 45.1148 110.388 38.885H89.0106Z" fill="#191551"/>
<path d="M111.354 57.5156C111.354 57.5156 115.395 53.3134 117.094 50.2279C118.558 47.5538 118.88 45.4968 118.939 45.0266C118.822 45.438 117.797 46.9955 109.012 49.2582C98.6743 51.9323 91.4119 55.4292 89.0399 63.9805C86.6679 55.4292 79.4055 51.9323 69.0682 49.2582C60.283 46.9955 59.2581 45.438 59.1409 45.0266C59.1995 45.5262 59.5216 47.5538 60.9858 50.2279C62.655 53.3134 66.7255 57.5156 66.7255 57.5156C57.2961 55.2823 51 104.285 51 104.285C58.5553 113.688 89.0106 112.625 89.0106 112.625C89.0106 112.625 119.466 113.688 127.021 104.285C126.992 104.285 120.725 55.2823 111.354 57.5156Z" fill="#630DD3"/>
<path d="M59.0824 46.6722C59.0824 46.6135 59.0824 46.5547 59.0824 46.5547C59.0824 46.5547 59.0531 46.5841 59.0824 46.6722Z" fill="#18557F"/>
<path d="M109.685 30.9802C109.685 30.9802 108.279 17.6684 103.389 11.2035C99.9332 6.64864 96.8291 9.93986 89.0103 13.9951C81.1915 9.93986 78.0874 6.64864 74.6026 11.2035C69.7122 17.6684 68.3358 30.9802 68.3358 30.9802C63.1526 31.5385 58.145 33.6543 58.145 33.6543C63.4454 41.9117 86.7847 43.3222 86.7847 43.3222H89.0103H91.2359C91.2359 43.3222 114.575 41.9117 119.876 33.6543C119.876 33.6543 114.839 31.5385 109.685 30.9802Z" fill="#4607A8"/>
<path d="M89.0106 27.3365C83.2709 27.3365 74.7493 26.4843 67.6333 23.6926L68.3361 30.9803C68.3361 30.9803 74.6322 34.6242 89.0106 34.6242C103.389 34.6242 109.685 30.9803 109.685 30.9803L110.388 23.6926C103.243 26.4843 94.721 27.3365 89.0106 27.3365Z" fill="#1C175C"/>
<path opacity="0.1" d="M89.0105 84.9914C89.0105 84.9914 119.466 112.306 127.021 102.903C127.021 102.903 120.725 55.2529 111.383 57.5156C111.383 57.5156 115.425 53.3134 117.123 50.2279C118.587 47.5538 118.909 45.4968 118.968 45.0266C118.968 45.056 118.939 45.1148 118.909 45.1735C118.939 45.1442 118.939 45.0854 118.968 45.056C119.554 43.2928 112.145 42.4994 109.861 42.2937C110.036 41.4415 110.183 40.6187 110.271 39.7959C114.488 38.356 118.207 36.3872 119.964 33.6543C119.964 33.6543 114.927 31.5385 109.773 30.9802C109.773 30.9802 108.367 17.6684 103.477 11.2035C100.021 6.64864 96.9172 9.93986 89.0984 13.9951V84.9914H89.0105Z" fill="black"/>
<circle cx="89.5" cy="69.5" r="1.6" fill="#C4C4C4" stroke="#FFD22E" stroke-width="0.2"/>
<circle cx="89.5" cy="77.5" r="1.6" fill="#C4C4C4" stroke="#FFD22E" stroke-width="0.2"/>
</g>
</svg>

<svg width="180" height="87" fill="none" xmlns="http://www.w3.org/2000/svg"><mask id="mask0" maskUnits="userSpaceOnUse" x="0" y="0" width="180" height="87"><path d="M176.505 86.761H3.495C1.613 86.761 0 85.451 0 83.665V3.858C0 2.072 1.479.761 3.495.761h173.01c1.882 0 3.495 1.31 3.495 3.097v79.926c-.134 1.667-1.613 2.977-3.495 2.977z" fill="#E4F5FB"/></mask><g mask="url(#mask0)"><path d="M109.129 42.235s10.483.705 9.781 2.82c-.703 2.087-6.853 9.11-6.853 9.11l-9.927.853 6.999-12.783z" fill="#630DD3"/><path d="M103.77 43.44s13.031.059 14.583 2.292c0 0-9.927 10.667-10.337 10.784-.41.147-12.71 1.41-12.71 1.41l8.464-14.486z" fill="#191551"/><path d="M68.892 42.235s-10.483.705-9.78 2.82c.703 2.087 6.852 9.11 6.852 9.11l9.927.853-6.999-12.783z" fill="#630DD3"/><path d="M74.252 43.44s-13.032.059-14.584 2.292c0 0 9.928 10.667 10.337 10.784.41.147 12.71 1.41 12.71 1.41L74.252 43.44z" fill="#191551"/><path d="M89.01 42.5s-21.318-10.61-21.318-5.555c0 5.553 1.581 12.9 9.078 17.308 3.25 1.91 12.24 12.019 12.24 12.019s8.99-10.138 12.241-12.02c7.526-4.378 9.078-11.724 9.078-17.307 0-5.084-21.319 5.553-21.319 5.553z" fill="#F0F0F0"/><path d="M89.01 38.885H67.634c1.172 5.495 7.966 12.166 13.002 12.166 5.857 0 6.15-4.79 8.376-4.79 2.225 0 2.518 4.79 8.375 4.79 5.037 0 11.596-5.936 13.002-12.166H89.011z" fill="#191551"/><path d="M111.354 57.516s4.041-4.203 5.74-7.288c1.464-2.674 1.786-4.731 1.845-5.201-.117.411-1.142 1.968-9.927 4.231-10.338 2.674-17.6 6.171-19.972 14.722-2.372-8.55-9.635-12.048-19.972-14.722-8.785-2.263-9.81-3.82-9.927-4.231.059.5.38 2.527 1.845 5.2 1.669 3.086 5.74 7.289 5.74 7.289C57.295 55.282 51 104.285 51 104.285c7.555 9.403 38.01 8.34 38.01 8.34s30.456 1.063 38.011-8.34c-.029 0-6.296-49.003-15.667-46.77z" fill="#630DD3"/><path d="M59.082 46.672v-.117s-.029.03 0 .117z" fill="#18557F"/><path d="M109.685 30.98s-1.406-13.312-6.296-19.776c-3.456-4.555-6.56-1.264-14.379 2.791-7.819-4.055-10.923-7.346-14.407-2.791-4.89 6.464-6.267 19.776-6.267 19.776-5.183.558-10.191 2.674-10.191 2.674 5.3 8.258 28.64 9.668 28.64 9.668h4.451s23.339-1.41 28.64-9.668c0 0-5.037-2.116-10.191-2.674z" fill="#4607A8"/><path d="M89.01 27.337c-5.74 0-14.26-.853-21.377-3.644l.703 7.287s6.296 3.644 20.675 3.644c14.378 0 20.674-3.644 20.674-3.644l.703-7.287c-7.145 2.791-15.667 3.643-21.377 3.643z" fill="#1C175C"/><path opacity=".1" d="M89.01 84.991s30.456 27.315 38.011 17.912c0 0-6.296-47.65-15.638-45.387 0 0 4.042-4.203 5.74-7.288 1.464-2.674 1.786-4.731 1.845-5.201a.48.48 0 01-.059.146c.03-.029.03-.088.059-.117.586-1.763-6.823-2.557-9.107-2.762.175-.852.322-1.675.41-2.498 4.217-1.44 7.936-3.409 9.693-6.142 0 0-5.037-2.116-10.191-2.674 0 0-1.406-13.312-6.296-19.776-3.456-4.555-6.56-1.264-14.379 2.791v70.996h-.088z" fill="#000"/><circle cx="89.5" cy="69.5" r="1.6" fill="#C4C4C4" stroke="#FFD22E" stroke-width=".2"/><circle cx="89.5" cy="77.5" r="1.6" fill="#C4C4C4" stroke="#FFD22E" stroke-width=".2"/></g></svg>
